src/assets/sidebar1.svg

<svg width="18" height="18" viewBox="0 0 18 18" fill="none" xmlns="http://www.w3.org/2000/svg">
<path fill-rule="evenodd" clip-rule="evenodd" d="M2.53125 0C1.85992 0 1.21609 0.266684 0.741386 0.741386C0.266684 1.21609 0 1.85992 0 2.53125V15.4688C0 16.1401 0.266684 16.7839 0.741386 17.2586C1.21609 17.7333 1.85992 18 2.53125 18H15.4688C16.1401 18 16.7839 17.7333 17.2586 17.2586C17.7333 16.7839 18 16.1401 18 15.4688V2.53125C18 1.85992 17.7333 1.21609 17.2586 0.741386C16.7839 0.266684 16.1401 0 15.4688 0H2.53125ZM1.6875 6.75V15.4688C1.6875 15.9345 2.0655 16.3125 2.53125 16.3125H15.4688C15.6925 16.3125 15.9071 16.2236 16.0654 16.0654C16.2236 15.9071 16.3125 15.6925 16.3125 15.4688V6.75H1.6875ZM3.375 2.53125C3.15122 2.53125 2.93661 2.62014 2.77838 2.77838C2.62014 2.93661 2.53125 3.15122 2.53125 3.375V3.38625C2.53125 3.852 2.90925 4.23 3.375 4.23H3.38625C3.61003 4.23 3.82464 4.1411 3.98287 3.98287C4.1411 3.82464 4.23 3.61003 4.23 3.38625V3.375C4.23 3.15122 4.1411 2.93661 3.98287 2.77838C3.82464 2.62014 3.61003 2.53125 3.38625 2.53125H3.375ZM5.90625 3.375C5.90625 3.15122 5.99514 2.93661 6.15338 2.77838C6.31161 2.62014 6.52622 2.53125 6.75 2.53125H6.76125C6.98503 2.53125 7.19964 2.62014 7.35787 2.77838C7.5161 2.93661 7.605 3.15122 7.605 3.375V3.38625C7.605 3.61003 7.5161 3.82464 7.35787 3.98287C7.19964 4.1411 6.98503 4.23 6.76125 4.23H6.75C6.52622 4.23 6.31161 4.1411 6.15338 3.98287C5.99514 3.82464 5.90625 3.61003 5.90625 3.38625V3.375ZM10.125 2.53125C9.90122 2.53125 9.68661 2.62014 9.52838 2.77838C9.37015 2.93661 9.28125 3.15122 9.28125 3.375V3.38625C9.28125 3.852 9.65925 4.23 10.125 4.23H10.1363C10.36 4.23 10.5746 4.1411 10.7329 3.98287C10.8911 3.82464 10.98 3.61003 10.98 3.38625V3.375C10.98 3.15122 10.8911 2.93661 10.7329 2.77838C10.5746 2.62014 10.36 2.53125 10.1363 2.53125H10.125Z" fill="black"/>
</svg>

<svg xmlns="http://www.w3.org/2000/svg" width="18" height="18" fill="none"><path fill="#000" fill-rule="evenodd" d="M2.531 0A2.53 2.53 0 0 0 0 2.531V15.47A2.53 2.53 0 0 0 2.531 18H15.47A2.53 2.53 0 0 0 18 15.469V2.53A2.53 2.53 0 0 0 15.469 0zm-.844 6.75v8.719c0 .466.379.844.844.844H15.47a.844.844 0 0 0 .844-.844V6.75zm1.688-4.219a.844.844 0 0 0-.844.844v.011c0 .466.378.844.844.844h.011a.844.844 0 0 0 .844-.844v-.011a.844.844 0 0 0-.844-.844zm2.531.844a.844.844 0 0 1 .844-.844h.011a.844.844 0 0 1 .844.844v.011a.844.844 0 0 1-.844.844H6.75a.844.844 0 0 1-.844-.844zm4.219-.844a.844.844 0 0 0-.844.844v.011c0 .466.378.844.844.844h.011a.844.844 0 0 0 .844-.844v-.011a.844.844 0 0 0-.844-.844z" clip-rule="evenodd"/></svg>
